X: 42600
T: Where You Goin' Me Silly Old Man
R: jig
M: 6/8
K: Amixolydian
B|:cBc ecB|ABA A2c|B2c dcB|ABA A2B|
cBc ecA|cde f2B|B2c dcB|1 ABA A2B:|2 efe e2d||
|:cBc d3|efe edc|B2c dcB|efe e2d|
cBc d3|cde f2B|B2c dcB|1 efe e2d:|2 ABA A2B||

